X:1
T:Outward and Homeward Bound
M:2/4
L:1/8
K:D
 AG| F/2F/2 FA F| ED DA| BG dB| BA AF| G G/2G/2 B A/2G/2| F F/2F/2 F A/2A/2|\
 cA FD| FE CA,| D3/2 E/2 DD|D-E-A c| B3/2 G/2 AA| D2||
